src/images/Ishan/Wave.svg

<svg fill="none" height="100" viewBox="0 0 100 100" width="100" xmlns="http://www.w3.org/2000/svg"><path d="m54.9739 56.3871c-.4782-6.5807-.9565-15.0968-1.6261-19.4516-.4782 3-.8608 7.9355-1.1478 11.8064-1.0522 13.8387-1.6261 18.6775-4.5913 18.6775-3.0609 0-3.5391-4.742-4.2087-11.2259-.287-3-.7652-7.9354-1.6261-9-.5739.5807-.9565 3.4839-1.1478 5.1291-.4783 3.8709-1.0522 8.3226-4.4957 8.3226-3.4434 0-4.113-3.9678-4.5913-6.871-.1913-1.2581-.5739-3.7742-1.1478-3.7742-.6696 0-1.0522.9677-1.6261 3-.5739 1.9355-1.4348 4.7419-4.113 4.7419-2.5826 0-3.7305-2.0322-4.4957-3.3871-.5739-.9677-.8608-1.4516-1.2435-1.4516-.7652 0-1.0521.1936-1.626.5807-.7653.5806-1.8174 1.3548-4.1131 1.3548h-5.73912c-.76521 0-1.43478-.6774-1.43478-1.4516s.66957-1.4516 1.43478-1.4516h5.73912c1.3391 0 1.8174-.2903 2.487-.7742.6695-.4839 1.5304-1.1613 3.2521-1.1613 2.1044 0 3.0609 1.6452 3.7305 2.9032.7652 1.3549 1.1478 1.9355 2.0087 1.9355.5739 0 .9565-1.5484 1.3391-2.7097.5739-2.129 1.4348-5.0322 4.4-5.0322s3.5391 3.3871 4.0174 6.1935c.3826 2.5162.7652 4.4516 1.7217 4.4516.9566 0 1.3392-3.7742 1.6261-5.8064.4783-3.7742.9565-7.742 4.1131-7.742 3.2521 0 3.7304 5.1291 4.4 11.7097.2869 2.5162.6695 6.3871 1.2434 8.0323.8609-2.6129 1.4348-10.1613 1.8174-15.3871.8609-12.5807 1.3392-16.9355 4.0174-16.9355 2.5826 0 3.1565 3.1936 4.4957 24.5806.2869 5.5162.6695 12.4839 1.2435 16.9355.5739-5.5161 1.0521-15.0967 1.4347-22.6451 1.3392-28.0645 1.9131-30.4839 4.4-30.4839 2.5826 0 3.0609 3.9677 4.0174 21 .3826 6.871.9566 16.9355 1.9131 20.0323.5739-1.2581.9565-4.3549 1.2435-6.0968.6695-4.742 1.2434-8.8065 4.2086-8.8065 2.8696 0 3.7305 3.0968 4.4957 5.6129.1913.9678.7652 2.9033 1.2435 3.0968.8608 0 1.0522-.2903 1.5304-.871.6696-.7742 1.6261-2.0322 4.2087-2.0322h4.7826c.7652 0 1.4348.6774 1.4348 1.4516s-.6696 1.4516-1.4348 1.4516h-4.7826c-1.2435 0-1.5304.3871-2.1043 1.0645s-1.5305 1.8387-3.6348 1.8387c-2.5826 0-3.3478-2.8064-4.0174-5.2258-.3826-1.3548-.9565-3.2903-1.6261-3.4838-.6696.7742-1.1478 4.258-1.4348 6.3871-.6695 4.6451-1.3391 9.0967-4.4 9.0967-2.8695 0-3.4435-4.6451-4.4956-23.2258-.287-4.9355-.6696-11.129-1.1479-15-.7652 5.6129-1.2434 16.1613-1.626 24.3871-1.2435 27.1936-1.8174 29.3226-4.2087 29.3226s-2.9653-3.0968-4.1131-23.6129z" fill="#eb0029"/></svg>

<svg width="100" height="100" viewBox="0 0 100 100" fill="none" xmlns="http://www.w3.org/2000/svg">
<path d="M54.9739 56.3871C54.4957 49.8064 54.0174 41.2903 53.3478 36.9355C52.8696 39.9355 52.487 44.871 52.2 48.7419C51.1478 62.5806 50.5739 67.4194 47.6087 67.4194C44.5478 67.4194 44.0696 62.6774 43.4 56.1935C43.113 53.1935 42.6348 48.2581 41.7739 47.1935C41.2 47.7742 40.8174 50.6774 40.6261 52.3226C40.1478 56.1935 39.5739 60.6452 36.1304 60.6452C32.687 60.6452 32.0174 56.6774 31.5391 53.7742C31.3478 52.5161 30.9652 50 30.3913 50C29.7217 50 29.3391 50.9677 28.7652 53C28.1913 54.9355 27.3304 57.7419 24.6522 57.7419C22.0696 57.7419 20.9217 55.7097 20.1565 54.3548C19.5826 53.3871 19.2957 52.9032 18.913 52.9032C18.1478 52.9032 17.8609 53.0968 17.287 53.4839C16.5217 54.0645 15.4696 54.8387 13.1739 54.8387H7.43478C6.66957 54.8387 6 54.1613 6 53.3871C6 52.6129 6.66957 51.9355 7.43478 51.9355H13.1739C14.513 51.9355 14.9913 51.6452 15.6609 51.1613C16.3304 50.6774 17.1913 50 18.913 50C21.0174 50 21.9739 51.6452 22.6435 52.9032C23.4087 54.2581 23.7913 54.8387 24.6522 54.8387C25.2261 54.8387 25.6087 53.2903 25.9913 52.129C26.5652 50 27.4261 47.0968 30.3913 47.0968C33.3565 47.0968 33.9304 50.4839 34.4087 53.2903C34.7913 55.8065 35.1739 57.7419 36.1304 57.7419C37.087 57.7419 37.4696 53.9677 37.7565 51.9355C38.2348 48.1613 38.713 44.1935 41.8696 44.1935C45.1217 44.1935 45.6 49.3226 46.2696 55.9032C46.5565 58.4194 46.9391 62.2903 47.513 63.9355C48.3739 61.3226 48.9478 53.7742 49.3304 48.5484C50.1913 35.9677 50.6696 31.6129 53.3478 31.6129C55.9304 31.6129 56.5043 34.8065 57.8435 56.1935C58.1304 61.7097 58.513 68.6774 59.087 73.129C59.6609 67.6129 60.1391 58.0323 60.5217 50.4839C61.8609 22.4194 62.4348 20 64.9217 20C67.5043 20 67.9826 23.9677 68.9391 41C69.3217 47.871 69.8957 57.9355 70.8522 61.0323C71.4261 59.7742 71.8087 56.6774 72.0957 54.9355C72.7652 50.1935 73.3391 46.129 76.3043 46.129C79.1739 46.129 80.0348 49.2258 80.8 51.7419C80.9913 52.7097 81.5652 54.6452 82.0435 54.8387C82.9043 54.8387 83.0957 54.5484 83.5739 53.9677C84.2435 53.1935 85.2 51.9355 87.7826 51.9355H92.5652C93.3304 51.9355 94 52.6129 94 53.3871C94 54.1613 93.3304 54.8387 92.5652 54.8387H87.7826C86.5391 54.8387 86.2522 55.2258 85.6783 55.9032C85.1044 56.5806 84.1478 57.7419 82.0435 57.7419C79.4609 57.7419 78.6957 54.9355 78.0261 52.5161C77.6435 51.1613 77.0696 49.2258 76.4 49.0323C75.7304 49.8065 75.2522 53.2903 74.9652 55.4194C74.2957 60.0645 73.6261 64.5161 70.5652 64.5161C67.6957 64.5161 67.1217 59.871 66.0696 41.2903C65.7826 36.3548 65.4 30.1613 64.9217 26.2903C64.1565 31.9032 63.6783 42.4516 63.2957 50.6774C62.0522 77.871 61.4783 80 59.087 80C56.6957 80 56.1217 76.9032 54.9739 56.3871Z" fill="#EB0029"/>
</svg>
